flaticon/sport/tennis.svg

<svg xmlns="http://www.w3.org/2000/svg" width="32" height="32" viewBox="0 0 24 24">
    <path d="M 16.203125 8.613281 L 15.300781 7.710938 L 15.882812 7.128906 L 16.785156 8.03125 Z M 16.203125 4.144531 L 16.789062 4.726562 L 15.882812 5.628906 L 15.300781 5.046875 Z M 21.742188 8.183594 L 21.097656 7.539062 L 21.679688 6.957031 L 22.328125 7.601562 Z M 21.105469 6.378906 L 21.25 6.234375 L 20.667969 5.648438 L 20.519531 5.796875 L 20.375 5.648438 L 19.792969 6.234375 L 19.9375 6.378906 L 19.792969 6.523438 L 20.375 7.109375 L 20.519531 6.960938 L 20.667969 7.109375 L 21.25 6.523438 Z M 18.867188 8.613281 L 18.285156 8.03125 L 19.1875 7.128906 L 19.773438 7.710938 Z M 17.683594 8.632812 L 17.535156 8.78125 L 17.390625 8.632812 L 16.808594 9.21875 L 16.953125 9.363281 L 16.808594 9.507812 L 17.390625 10.089844 L 17.535156 9.945312 L 17.683594 10.089844 L 18.265625 9.507812 L 18.121094 9.363281 L 18.265625 9.21875 Z M 19.1875 11.597656 L 18.285156 10.695312 L 18.867188 10.113281 L 19.773438 11.015625 Z M 15.882812 11.597656 L 15.300781 11.015625 L 16.207031 10.113281 L 16.789062 10.695312 Z M 15.136719 12.347656 L 15.28125 12.199219 L 14.699219 11.617188 L 14.550781 11.761719 L 14.40625 11.617188 L 13.824219 12.199219 L 13.96875 12.347656 L 13.824219 12.492188 L 14.40625 13.074219 L 14.550781 12.929688 L 14.699219 13.074219 L 15.28125 12.492188 Z M 15.777344 14.152344 L 15.128906 13.507812 L 15.710938 12.921875 L 16.359375 13.570312 Z M 12.902344 10.109375 L 13.804688 11.015625 L 13.222656 11.597656 L 12.316406 10.695312 Z M 13.144531 14.339844 L 12.5625 13.753906 L 13.320312 12.996094 L 13.902344 13.582031 Z M 10.160156 11.355469 L 9.578125 10.769531 L 10.335938 10.011719 L 10.917969 10.597656 Z M 10.34375 7.554688 L 10.992188 8.203125 L 10.410156 8.785156 L 9.761719 8.140625 Z M 11.714844 8.632812 L 11.570312 8.78125 L 11.421875 8.632812 L 10.839844 9.21875 L 10.984375 9.363281 L 10.839844 9.507812 L 11.421875 10.089844 L 11.570312 9.945312 L 11.714844 10.089844 L 12.296875 9.507812 L 12.152344 9.363281 L 12.296875 9.21875 Z M 13.222656 7.128906 L 13.804688 7.710938 L 12.898438 8.613281 L 12.316406 8.03125 Z M 14.40625 7.109375 L 14.550781 6.960938 L 14.699219 7.109375 L 15.28125 6.523438 L 15.136719 6.378906 L 15.28125 6.234375 L 14.699219 5.648438 L 14.550781 5.796875 L 14.40625 5.648438 L 13.824219 6.234375 L 13.96875 6.378906 L 13.824219 6.523438 Z M 12.902344 4.144531 L 13.804688 5.046875 L 13.222656 5.628906 L 12.316406 4.726562 Z M 15.730469 2.171875 L 16.3125 1.589844 L 16.960938 2.234375 L 16.375 2.816406 Z M 18.945312 1.402344 L 19.527344 1.984375 L 18.769531 2.746094 L 18.1875 2.160156 Z M 17.683594 2.664062 L 17.535156 2.8125 L 17.390625 2.664062 L 16.808594 3.25 L 16.953125 3.394531 L 16.808594 3.539062 L 17.390625 4.125 L 17.535156 3.976562 L 17.683594 4.125 L 18.265625 3.539062 L 18.121094 3.394531 L 18.265625 3.25 Z M 19.1875 5.628906 L 18.285156 4.726562 L 18.867188 4.144531 L 19.773438 5.046875 Z M 21.753906 5.726562 L 21.171875 5.144531 L 21.929688 4.386719 L 22.511719 4.96875 Z M 7.742188 4.34375 C 7.738281 4.296875 7.730469 4.25 7.726562 4.207031 C 7.714844 4.136719 7.707031 4.070312 7.695312 4.003906 C 7.683594 3.949219 7.671875 3.898438 7.660156 3.84375 C 7.644531 3.785156 7.628906 3.726562 7.613281 3.667969 C 7.597656 3.617188 7.582031 3.5625 7.566406 3.511719 C 7.546875 3.453125 7.523438 3.394531 7.5 3.339844 C 7.484375 3.292969 7.464844 3.246094 7.445312 3.199219 C 7.414062 3.132812 7.382812 3.0625 7.347656 2.996094 C 7.332031 2.964844 7.316406 2.933594 7.300781 2.902344 C 7.191406 2.703125 7.0625 2.511719 6.917969 2.332031 L 6.691406 2.058594 L 6.675781 2.070312 C 6.003906 1.398438 5.074219 0.980469 4.050781 0.980469 C 3.027344 0.980469 2.097656 1.394531 1.425781 2.070312 L 1.410156 2.058594 L 1.183594 2.332031 C 1.109375 2.425781 1.039062 2.519531 0.972656 2.617188 C 0.96875 2.621094 0.96875 2.628906 0.964844 2.632812 C 0.90625 2.71875 0.851562 2.808594 0.800781 2.898438 C 0.78125 2.933594 0.765625 2.96875 0.746094 3.003906 C 0.714844 3.070312 0.683594 3.132812 0.65625 3.199219 C 0.632812 3.246094 0.613281 3.292969 0.597656 3.339844 C 0.574219 3.398438 0.554688 3.453125 0.535156 3.511719 C 0.515625 3.5625 0.5 3.617188 0.484375 3.671875 C 0.46875 3.726562 0.453125 3.785156 0.441406 3.839844 C 0.425781 3.894531 0.414062 3.949219 0.40625 4.003906 C 0.390625 4.070312 0.382812 4.136719 0.375 4.203125 C 0.367188 4.25 0.359375 4.296875 0.355469 4.34375 C 0.34375 4.457031 0.335938 4.574219 0.335938 4.691406 C 0.335938 4.816406 0.34375 4.945312 0.355469 5.070312 C 0.359375 5.082031 0.359375 5.089844 0.363281 5.101562 C 0.449219 5.894531 0.789062 6.625 1.335938 7.214844 C 1.367188 7.25 1.398438 7.285156 1.433594 7.320312 C 1.4375 7.324219 1.441406 7.332031 1.445312 7.335938 L 1.699219 7.585938 L 1.714844 7.574219 C 2.351562 8.09375 3.164062 8.402344 4.050781 8.402344 C 4.933594 8.402344 5.746094 8.089844 6.382812 7.574219 L 6.398438 7.585938 L 6.652344 7.335938 C 6.65625 7.332031 6.664062 7.324219 6.667969 7.320312 C 6.691406 7.296875 6.710938 7.273438 6.730469 7.25 C 7.300781 6.65625 7.652344 5.902344 7.738281 5.09375 C 7.738281 5.085938 7.742188 5.078125 7.742188 5.070312 C 7.753906 4.945312 7.761719 4.820312 7.761719 4.691406 C 7.761719 4.574219 7.753906 4.457031 7.742188 4.34375 Z M 1.742188 6.417969 C 1.660156 6.3125 1.589844 6.203125 1.527344 6.089844 C 1.515625 6.070312 1.503906 6.050781 1.496094 6.03125 C 1.4375 5.921875 1.386719 5.804688 1.34375 5.691406 C 1.332031 5.65625 1.320312 5.625 1.308594 5.59375 C 1.269531 5.46875 1.234375 5.339844 1.210938 5.210938 C 1.207031 5.179688 1.203125 5.148438 1.199219 5.117188 C 1.175781 4.976562 1.164062 4.835938 1.164062 4.691406 C 1.164062 4.570312 1.171875 4.449219 1.1875 4.328125 C 1.191406 4.296875 1.195312 4.265625 1.203125 4.238281 C 1.21875 4.136719 1.238281 4.039062 1.265625 3.941406 C 1.269531 3.921875 1.273438 3.898438 1.28125 3.878906 C 1.316406 3.761719 1.355469 3.648438 1.402344 3.539062 C 1.414062 3.519531 1.421875 3.5 1.433594 3.480469 C 1.472656 3.390625 1.519531 3.304688 1.570312 3.222656 C 1.578125 3.207031 1.589844 3.1875 1.601562 3.171875 C 2.105469 3.597656 2.398438 4.21875 2.398438 4.898438 C 2.398438 5.488281 2.175781 6.039062 1.773438 6.460938 C 1.761719 6.445312 1.753906 6.433594 1.742188 6.417969 Z M 4.050781 7.578125 C 3.417969 7.578125 2.839844 7.371094 2.363281 7.027344 C 2.914062 6.457031 3.222656 5.707031 3.222656 4.898438 C 3.222656 3.988281 2.8125 3.128906 2.125 2.542969 C 2.636719 2.085938 3.308594 1.804688 4.050781 1.804688 C 4.789062 1.804688 5.460938 2.085938 5.972656 2.542969 C 5.289062 3.128906 4.875 3.988281 4.875 4.898438 C 4.875 5.707031 5.1875 6.457031 5.734375 7.027344 C 5.261719 7.371094 4.679688 7.578125 4.050781 7.578125 Z M 6.902344 5.117188 C 6.898438 5.148438 6.894531 5.179688 6.886719 5.210938 C 6.863281 5.339844 6.832031 5.46875 6.789062 5.59375 C 6.777344 5.625 6.765625 5.660156 6.753906 5.691406 C 6.710938 5.804688 6.664062 5.917969 6.609375 6.023438 C 6.59375 6.046875 6.582031 6.070312 6.570312 6.09375 C 6.507812 6.207031 6.4375 6.3125 6.359375 6.414062 C 6.347656 6.429688 6.339844 6.445312 6.328125 6.460938 C 5.925781 6.039062 5.699219 5.488281 5.699219 4.898438 C 5.699219 4.222656 5.992188 3.597656 6.5 3.171875 C 6.511719 3.191406 6.523438 3.207031 6.535156 3.226562 C 6.582031 3.308594 6.625 3.390625 6.664062 3.472656 C 6.675781 3.496094 6.6875 3.519531 6.695312 3.539062 C 6.742188 3.652344 6.785156 3.761719 6.816406 3.878906 C 6.824219 3.898438 6.828125 3.921875 6.835938 3.945312 C 6.859375 4.039062 6.882812 4.136719 6.898438 4.238281 C 6.902344 4.265625 6.90625 4.296875 6.910156 4.328125 C 6.925781 4.449219 6.9375 4.570312 6.9375 4.691406 C 6.9375 4.835938 6.921875 4.976562 6.902344 5.117188 Z M 23.636719 3.597656 C 23.363281 2.832031 22.941406 2.164062 22.390625 1.613281 C 21.835938 1.058594 21.167969 0.636719 20.402344 0.363281 C 18.835938 -0.199219 16.945312 -0.105469 15.085938 0.628906 C 13.738281 1.160156 12.449219 2.015625 11.363281 3.101562 C 10.273438 4.191406 9.417969 5.476562 8.886719 6.828125 C 8.203125 8.5625 8.082031 10.320312 8.527344 11.824219 L 8.449219 11.898438 L 8.539062 12.144531 C 8.5625 12.207031 8.59375 12.269531 8.617188 12.332031 C 8.132812 13.480469 6.625 15.035156 5.648438 16.019531 C 5.1875 15.816406 4.605469 15.894531 4.238281 16.261719 L 0.710938 19.789062 C -0.238281 20.738281 -0.238281 22.28125 0.710938 23.226562 L 0.773438 23.289062 C 1.246094 23.761719 1.867188 24 2.492188 24 C 3.113281 24 3.738281 23.761719 4.210938 23.289062 L 7.738281 19.761719 C 8.121094 19.378906 8.199219 18.8125 7.984375 18.347656 C 8.898438 17.441406 10.578125 15.820312 11.730469 15.359375 C 11.742188 15.367188 11.757812 15.371094 11.769531 15.378906 L 12.015625 15.464844 L 12.046875 15.4375 C 12.671875 15.636719 13.339844 15.742188 14.035156 15.742188 C 15.046875 15.742188 16.113281 15.53125 17.171875 15.113281 C 18.523438 14.582031 19.808594 13.726562 20.894531 12.636719 C 21.984375 11.550781 22.839844 10.261719 23.371094 8.914062 C 24.105469 7.054688 24.199219 5.164062 23.636719 3.597656 Z M 7.15625 19.179688 L 3.628906 22.707031 C 3.019531 23.3125 1.964844 23.3125 1.355469 22.707031 L 1.292969 22.644531 C 0.667969 22.015625 0.667969 21 1.292969 20.371094 L 4.820312 16.84375 C 4.902344 16.765625 5.011719 16.71875 5.128906 16.71875 C 5.242188 16.71875 5.351562 16.765625 5.433594 16.84375 L 7.15625 18.566406 C 7.324219 18.738281 7.324219 19.011719 7.15625 19.179688 Z M 7.460938 17.707031 L 6.292969 16.539062 C 7.386719 15.4375 8.503906 14.238281 9.117188 13.171875 C 9.195312 13.296875 9.28125 13.417969 9.367188 13.535156 L 9.308594 13.582031 C 9.453125 13.773438 9.613281 13.960938 9.785156 14.128906 C 9.957031 14.300781 10.140625 14.460938 10.332031 14.605469 L 10.367188 14.5625 C 10.515625 14.679688 10.667969 14.785156 10.832031 14.886719 C 9.664062 15.5625 8.347656 16.824219 7.460938 17.707031 Z M 22.796875 8.070312 L 22.757812 8.035156 L 22.175781 8.617188 L 22.472656 8.917969 C 22.023438 9.949219 21.367188 10.933594 20.554688 11.800781 L 20.375 11.617188 L 19.792969 12.199219 L 19.972656 12.378906 C 19.09375 13.183594 18.097656 13.828125 17.054688 14.265625 L 16.789062 14 L 16.21875 14.574219 C 14.910156 14.972656 13.628906 15.019531 12.507812 14.714844 L 12.054688 14.261719 L 11.84375 14.472656 C 11.59375 14.367188 11.359375 14.246094 11.144531 14.105469 C 11.121094 14.089844 11.097656 14.070312 11.074219 14.054688 C 10.976562 13.988281 10.878906 13.921875 10.789062 13.847656 C 10.671875 13.753906 10.558594 13.652344 10.453125 13.546875 C 10.347656 13.441406 10.246094 13.328125 10.152344 13.207031 C 10.082031 13.125 10.019531 13.035156 9.957031 12.945312 C 9.9375 12.914062 9.914062 12.886719 9.894531 12.855469 C 9.816406 12.734375 9.742188 12.613281 9.675781 12.484375 C 9.675781 12.480469 9.675781 12.480469 9.675781 12.476562 C 9.605469 12.34375 9.539062 12.207031 9.480469 12.0625 L 9.472656 12.042969 L 9.65625 11.859375 L 9.289062 11.492188 C 8.960938 10.300781 9.039062 8.917969 9.515625 7.523438 L 9.914062 7.125 L 9.734375 6.945312 C 10.171875 5.902344 10.816406 4.90625 11.621094 4.027344 L 11.714844 4.125 L 12.296875 3.539062 L 12.199219 3.445312 C 13.066406 2.632812 14.050781 1.976562 15.082031 1.527344 L 15.296875 1.742188 L 15.777344 1.261719 C 16.609375 0.976562 17.4375 0.824219 18.222656 0.824219 C 18.671875 0.824219 19.105469 0.875 19.523438 0.96875 L 20.03125 1.480469 L 20.300781 1.214844 C 20.875 1.445312 21.382812 1.769531 21.804688 2.195312 C 22.199219 2.585938 22.507812 3.054688 22.734375 3.578125 L 22.433594 3.882812 L 23.015625 4.464844 L 23.027344 4.453125 C 23.28125 5.558594 23.203125 6.808594 22.796875 8.070312 Z M 22.796875 8.070312"/>
</svg>

<svg xmlns="http://www.w3.org/2000/svg" width="32" height="32" viewBox="0 0 24 24">
    <path d="M16.203 8.613l-.902-.902.582-.582.902.902zm0-4.468l.586.582-.906.902-.582-.582zm5.54 4.039l-.645-.645.582-.582.648.645zm-.638-1.805l.145-.145-.582-.586-.148.149-.145-.149-.582.586.145.145-.145.144.582.586.145-.148.148.148.582-.586zm-2.238 2.234l-.582-.582.902-.902.586.582zm-1.183.02l-.149.148-.144-.148-.582.586.144.144-.144.145.582.582.144-.145.149.145.582-.582-.145-.145.145-.144zm1.503 2.965l-.902-.903.582-.582.906.903zm-3.304 0l-.582-.582.906-.903.582.582zm-.746.75l.144-.149-.582-.582-.148.145-.145-.145-.582.582.145.149-.145.144.582.582.145-.144.148.144.582-.582zm.64 1.804l-.648-.644.582-.586.648.648zm-2.875-4.043l.903.907-.582.582-.907-.903zm.243 4.23l-.582-.585.757-.758.582.586zm-2.985-2.984l-.582-.585.758-.758.582.586zm.184-3.8l.648.648-.582.582-.648-.644zm1.37 1.078l-.144.148-.148-.148-.582.586.144.144-.144.145.582.582.148-.145.145.145.582-.582-.145-.145.145-.144zm1.509-1.504l.582.582-.907.902-.582-.582zm1.183-.02l.145-.148.148.148.582-.586-.144-.144.144-.145-.582-.586-.148.149-.145-.149-.582.586.145.145-.145.144zm-1.504-2.964l.903.902-.582.582-.907-.902zm2.828-1.973l.582-.582.649.644-.586.582zm3.215-.77l.582.582-.757.762-.582-.586zm-1.261 1.262l-.149.148-.144-.148-.582.586.144.145-.144.144.582.586.144-.148.149.148.582-.586-.145-.144.145-.145zm1.503 2.965l-.902-.902.582-.582.906.902zm2.567.098l-.582-.582.758-.758.582.582zM7.742 4.344c-.004-.047-.012-.094-.015-.137-.012-.07-.02-.137-.032-.203-.011-.055-.023-.106-.035-.16l-.047-.176-.047-.156A2.24 2.24 0 0 0 7.5 3.34a2.085 2.085 0 0 0-.055-.14c-.03-.067-.062-.138-.097-.204L7.3 2.902c-.11-.199-.239-.39-.383-.57l-.227-.273-.015.011a3.706 3.706 0 0 0-5.25 0L1.41 2.06l-.226.273a4.875 4.875 0 0 0-.211.285c-.004.004-.004.012-.008.016a3.736 3.736 0 0 0-.164.265c-.02.036-.035.07-.055.106-.031.066-.062.129-.09.195a3.039 3.039 0 0 0-.121.313c-.02.05-.035.105-.05.16a2.648 2.648 0 0 0-.044.168 1.23 1.23 0 0 0-.035.164 1.758 1.758 0 0 0-.031.2 3.393 3.393 0 0 0-.02.867c.004.011.004.019.008.03.086.794.426 1.524.973 2.114.031.035.062.07.098.105.004.004.007.012.011.016l.254.25.016-.012c.637.52 1.45.828 2.336.828.883 0 1.695-.312 2.332-.828l.015.012.254-.25.016-.016a1.01 1.01 0 0 0 .062-.07 3.664 3.664 0 0 0 1.008-2.156c0-.008.004-.016.004-.024a3.393 3.393 0 0 0 0-.727zm-6 2.074a2.49 2.49 0 0 1-.215-.328c-.011-.02-.023-.04-.03-.059a2.919 2.919 0 0 1-.153-.34l-.035-.097a3.233 3.233 0 0 1-.098-.383l-.012-.094a2.574 2.574 0 0 1-.035-.426c0-.12.008-.242.024-.363a.614.614 0 0 1 .015-.09c.016-.101.035-.199.063-.297.004-.02.007-.043.015-.062.035-.117.074-.23.121-.34.012-.02.02-.039.032-.059a2.028 2.028 0 0 1 .168-.308c.503.426.796 1.047.796 1.726 0 .59-.222 1.141-.625 1.563l-.03-.043zm2.309 1.16c-.633 0-1.211-.207-1.688-.55.551-.571.86-1.321.86-2.13 0-.91-.41-1.77-1.098-2.355a2.879 2.879 0 0 1 3.848 0 3.117 3.117 0 0 0-1.098 2.355c0 .809.313 1.559.86 2.13a2.857 2.857 0 0 1-1.684.55zm2.851-2.46a2.62 2.62 0 0 1-.113.477l-.035.096c-.043.114-.09.227-.145.332a2.519 2.519 0 0 1-.25.39l-.03.048a2.25 2.25 0 0 1-.63-1.563c0-.675.293-1.3.801-1.726l.035.055c.047.082.09.164.13.246l.03.066c.047.113.09.223.121.34.008.02.012.043.02.066a3.228 3.228 0 0 1 .074.383c.016.121.027.242.027.363 0 .145-.015.286-.035.426zm16.735-1.52a5.307 5.307 0 0 0-1.246-1.985 5.313 5.313 0 0 0-1.989-1.25c-1.566-.562-3.457-.468-5.316.266-1.348.531-2.637 1.387-3.723 2.473-1.09 1.09-1.945 2.375-2.476 3.726-.684 1.734-.805 3.492-.36 4.996l-.078.074.09.247c.024.062.055.125.078.187-.484 1.148-1.992 2.703-2.969 3.688-.46-.204-1.043-.125-1.41.242L.711 19.789a2.43 2.43 0 0 0 0 3.438l.062.062c.473.473 1.094.711 1.72.711.62 0 1.245-.238 1.718-.71l3.527-3.528c.383-.383.461-.95.246-1.414.914-.907 2.594-2.528 3.746-2.989.012.008.028.012.04.02l.246.086.03-.027c.626.199 1.294.304 1.99.304 1.01 0 2.077-.21 3.136-.629 1.351-.531 2.637-1.386 3.723-2.476 1.09-1.086 1.945-2.375 2.476-3.723.734-1.86.828-3.75.266-5.316zM7.157 19.18l-3.528 3.527c-.61.605-1.664.605-2.274 0l-.062-.062a1.613 1.613 0 0 1 0-2.274l3.527-3.527a.448.448 0 0 1 .309-.125c.113 0 .223.047.305.125l1.722 1.722a.436.436 0 0 1 0 .614zm.304-1.473l-1.168-1.168c1.094-1.102 2.21-2.3 2.824-3.367.078.125.164.246.25.363l-.058.047a5.25 5.25 0 0 0 1.023 1.023l.035-.042c.149.117.301.222.465.324-1.168.675-2.484 1.937-3.371 2.82zM22.797 8.07l-.04-.035-.581.582.297.301a10.232 10.232 0 0 1-1.918 2.883l-.18-.184-.582.582.18.18a10.2 10.2 0 0 1-2.918 1.887L16.789 14l-.57.574c-1.309.399-2.59.446-3.711.14l-.453-.452-.211.21a4.388 4.388 0 0 1-.7-.367c-.023-.015-.046-.035-.07-.05-.097-.067-.195-.133-.285-.207a4.099 4.099 0 0 1-.336-.301 3.592 3.592 0 0 1-.3-.34 3.253 3.253 0 0 1-.196-.262c-.02-.03-.043-.058-.062-.09a4.401 4.401 0 0 1-.22-.37v-.008a4.481 4.481 0 0 1-.195-.415l-.007-.019.183-.184-.367-.367c-.328-1.191-.25-2.574.227-3.969l.398-.398-.18-.18a10.2 10.2 0 0 1 1.887-2.918l.094.098.582-.586-.098-.094a10.232 10.232 0 0 1 2.883-1.918l.215.215.48-.48c.832-.285 1.66-.438 2.446-.438.449 0 .882.051 1.3.145l.508.511.27-.265c.574.23 1.082.555 1.504.98.394.39.703.86.93 1.383l-.301.305.582.582.011-.012c.254 1.106.176 2.356-.23 3.617zm0 0"/>
</svg>
